svg/invoice_text_fast_outline.svg

<svg xmlns="http://www.w3.org/2000/svg" viewBox="0 0 24 24"><path d="M18 9h-7v2h7zm-7 4h5v2h-5zm11 8-2.5-1.68L17 21l-2.5-1.68L12 21l-2.5-1.68L7 21V5h15zm-2-4.43V7H9v9.57l3 2.02 2.5-1.69 2.5 1.69zM3 7c-.6 0-1 .4-1 1s.4 1 1 1h2V7zm-1 4c-.6 0-1 .4-1 1s.4 1 1 1h3v-2zm-1 4c-.6 0-1 .4-1 1s.4 1 1 1h4v-2z"/></svg>

<svg xmlns="http://www.w3.org/2000/svg" id="mdi-invoice-text-fast-outline" viewBox="0 0 24 24"><path d="M18 9H11V11H18V9M11 13H16V15H11V13M22 21L19.5 19.32L17 21L14.5 19.32L12 21L9.5 19.32L7 21V5H22V21M20 16.57V7H9V16.57L12 18.59L14.5 16.9L17 18.59L20 16.57M3 7C2.4 7 2 7.4 2 8C2 8.6 2.4 9 3 9H5V7H3M2 11C1.4 11 1 11.4 1 12C1 12.6 1.4 13 2 13H5V11H2M1 15C.4 15 0 15.4 0 16C0 16.6 .4 17 1 17H5V15H1Z" /></svg>
